X:24 
T:Girl With the Blue Dress On (polka)
C:file ID mally/24girl_bd
B:Mally.HIP.057
Q:120
R:polka
L:1/8
M:2/4
K:G
z|de/d/ c/B/A/c/|BG G/F/G/B/|AD FG|AG G>B|
de/d/ c/B/A/c/|BG G/F/G/B/|AD F>G|AG G :|
z|Bd g/f/g|fe e>d|Bd e>f|ed BA|
GB/d/ g/f/g|fe e>d|Bd ef|ag g :|

